!!!!SEGMENT: Wil1001e-Missa_Mente_tota-Agnus
!!!id: Wil1001e
!!!AGN: Mass; Agnus
!!!voices: 6
!!!OPR: Missa Mente tota
!!!COM: Adrian Willaert
!!!OTL: Agnus
**kern	**text	**kern	**text	**kern	**text	**kern	**text	**kern	**text	**kern	**text
*part6	*part6	*part5	*part5	*part4	*part4	*part3	*part3	*part2	*part2	*part1	*part1
*staff6	*staff6	*staff5	*staff5	*staff4	*staff4	*staff3	*staff3	*staff2	*staff2	*staff1	*staff1
*I"Bassus	*	*I"Tenor II	*	*I"Tenor I	*	*I"Altus II	*	*I"Altus I	*	*I"Superius	*
*I'B.	*	*I'T. II	*	*I'T. I	*	*I'A. II	*	*I'A. I	*	*I'S.	*
*clefF4	*	*clefF4	*	*clefGv2	*	*clefG2	*	*clefG2	*	*clefG2	*
*k[b-]	*	*k[b-]	*	*k[b-]	*	*k[b-]	*	*k[b-]	*	*k[b-]	*
*d:	*	*d:	*	*d:	*	*d:	*	*d:	*	*d:	*
*M2/1	*	*M2/1	*	*M2/1	*	*M2/1	*	*M2/1	*	*M2/1	*
*met(C|)	*	*met(C|)	*	*met(C|)	*	*met(C|)	*	*met(C|)	*	*met(C|)	*
=1	=1	=1	=1	=1	=1	=1	=1	=1	=1	=1	=1
!!section: Agnus Dei I
!!!OMD: Agnus Dei I
!LO:TX:a:t=Canon&colon; bassus/tenor I at the fifth	!	!	!	!	!	!	!	!LO:TX:a:t=Canon&colon; altus I/superius at the fifth	!	!	!
1G	A-	0r	.	0r	.	1.d	A-	0r	.	0r	.
1G	-gnus	.	.	.	.	.	.	.	.	.	.
.	.	.	.	.	.	2e	-gnus	.	.	.	.
=2	=2	=2	=2	=2	=2	=2	=2	=2	=2	=2	=2
1F	De-	0r	.	1d	A-	4f	De-	0r	.	0r	.
.	.	.	.	.	.	4e	.	.	.	.	.
.	.	.	.	.	.	4d	.	.	.	.	.
.	.	.	.	.	.	4c	.	.	.	.	.
1G	-i,	.	.	1d	-gnus	1B-y	.	.	.	.	.
=3	=3	=3	=3	=3	=3	=3	=3	=3	=3	=3	=3
2r	.	1r	.	1c	De-	1A	-i,	0r	.	0r	.
2A	[A-	.	.	.	.	.	.	.	.	.	.
4B-y	-gnus	[1G	A-	1d	-i,	2r	.	.	.	.	.
4A	.	.	.	.	.	.	.	.	.	.	.
4G	.	.	.	.	.	[2d	[De-	.	.	.	.
4F	.	.	.	.	.	.	.	.	.	.	.
=4	=4	=4	=4	=4	=4	=4	=4	=4	=4	=4	=4
1E	.	1G]	.	2r	.	2d]	.	0r	.	0r	.
.	.	.	.	2e	[A-	2c	.	.	.	.	.
1D	De-	1A	-gnus	4f	-gnus	[1d	-i,	.	.	.	.
.	.	.	.	4e	.	.	.	.	.	.	.
.	.	.	.	4d	.	.	.	.	.	.	.
.	.	.	.	4c	.	.	.	.	.	.	.
=5	=5	=5	=5	=5	=5	=5	=5	=5	=5	=5	=5
1.G	.	2G	De-	1B-y	.	1d]	.	0r	.	0r	.
.	.	2B-y	.	.	.	.	.	.	.	.	.
.	.	1c	.	1A	De-	1r	.	.	.	.	.
2F	.	.	.	.	.	.	.	.	.	.	.
=6	=6	=6	=6	=6	=6	=6	=6	=6	=6	=6	=6
1G	.	1B-y	.	1.d	.	2r	.	1g	A-	0r	.
.	.	.	.	.	.	2d	A-	.	.	.	.
1E	.	1G	.	.	.	2e	.	1g	-gnus	.	.
.	.	.	.	2c	.	2e	-gnus	.	.	.	.
=7	=7	=7	=7	=7	=7	=7	=7	=7	=7	=7	=7
1D	-i],	1A	-i,	1d	.	4f	De-	1f	De-	1dd	A-
.	.	.	.	.	.	4e	.	.	.	.	.
.	.	.	.	.	.	4d	.	.	.	.	.
.	.	.	.	.	.	4c	.	.	.	.	.
1r	.	1G	.	1B-y	.	1d	.	1g	-i,	1dd	-gnus
=8	=8	=8	=8	=8	=8	=8	=8	=8	=8	=8	=8
0r	.	1r	.	1A	-i],	1e	.	2r	.	1cc	De-
.	.	.	.	.	.	.	.	2a	[A-	.	.
.	.	1G	[De-	1r	.	1d	-i,	4b-y	-gnus	1dd	-i,
.	.	.	.	.	.	.	.	4a	.	.	.
.	.	.	.	.	.	.	.	4g	.	.	.
.	.	.	.	.	.	.	.	4f	.	.	.
=9	=9	=9	=9	=9	=9	=9	=9	=9	=9	=9	=9
0r	.	1c	.	0r	.	2r	.	1e	.	2r	.
.	.	.	.	.	.	2c	A-	.	.	2ee	[A-
.	.	1B-y	.	.	.	2d	.	1d	De-	4ff	-gnus
.	.	.	.	.	.	.	.	.	.	4ee	.
.	.	.	.	.	.	2B-y	-gnus	.	.	4dd	.
.	.	.	.	.	.	.	.	.	.	4cc	.
=10	=10	=10	=10	=10	=10	=10	=10	=10	=10	=10	=10
0r	.	1G	.	0r	.	2.d	De-	1.g	.	1b-y	.
.	.	.	.	.	.	4e	.	.	.	.	.
.	.	[1d	-i],	.	.	2f	.	.	.	1a	De-
.	.	.	.	.	.	[2d	.	2f#i	.	.	.
=11	=11	=11	=11	=11	=11	=11	=11	=11	=11	=11	=11
1.G	qui	1d]	.	0r	.	2d]	.	1g	.	1.dd	.
.	.	.	.	.	.	1b-y	.	.	.	.	.
.	.	1r	.	.	.	.	.	1e	.	.	.
2A	.	.	.	.	.	4a	.	.	.	2cc	.
.	.	.	.	.	.	4g	.	.	.	.	.
=12	=12	=12	=12	=12	=12	=12	=12	=12	=12	=12	=12
2.B-y	tol-	0r	.	1.d	qui	1f	.	1d	-i]	1dd	.
4A	.	.	.	.	.	.	.	.	.	.	.
1G	.	.	.	.	.	1g	.	1r	.	1b-y	.
.	.	.	.	2e	.	.	.	.	.	.	.
=13	=13	=13	=13	=13	=13	=13	=13	=13	=13	=13	=13
2F	.	2.D	qui	2.f	tol-	[0a	-i]	0r	.	1a	-i],
2.D	.	.	.	.	.	.	.	.	.	.	.
.	.	4E	.	4e	.	.	.	.	.	.	.
.	.	2F	.	1d	.	.	.	.	.	1r	.
4E	.	.	.	.	.	.	.	.	.	.	.
4F	.	2D	.	.	.	.	.	.	.	.	.
4G	.	.	.	.	.	.	.	.	.	.	.
=14	=14	=14	=14	=14	=14	=14	=14	=14	=14	=14	=14
2A	.	1.F	tol-	2c	.	0a]	.	0r	.	0r	.
2F	.	.	.	2.A	.	.	.	.	.	.	.
2.A	.	.	.	.	.	.	.	.	.	.	.
.	.	.	.	4B-y	.	.	.	.	.	.	.
.	.	4E	.	4c	.	.	.	.	.	.	.
4B-y	.	4D	.	4d	.	.	.	.	.	.	.
=15	=15	=15	=15	=15	=15	=15	=15	=15	=15	=15	=15
2c	.	2C	.	2e	.	0r	.	0r	.	0r	.
1A	.	1c	.	2c	.	.	.	.	.	.	.
.	.	.	.	2.e	.	.	.	.	.	.	.
4G	.	4B-y	.	.	.	.	.	.	.	.	.
4F	.	4A	.	4f	.	.	.	.	.	.	.
=16	=16	=16	=16	=16	=16	=16	=16	=16	=16	=16	=16
4E	.	2G	.	2g	.	0r	.	1.g	qui	0r	.
4C	.	.	.	.	.	.	.	.	.	.	.
1c	.	2C	.	1e	.	.	.	.	.	.	.
.	.	1c	.	.	.	.	.	.	.	.	.
4B-y	.	.	.	4d	.	.	.	2a	.	.	.
4A	.	.	.	4c	.	.	.	.	.	.	.
=17	=17	=17	=17	=17	=17	=17	=17	=17	=17	=17	=17
0G	-lis	1d	.	4B-y	.	1r	.	2.b-y	tol-	1.dd	qui
.	.	.	.	4G	.	.	.	.	.	.	.
.	.	.	.	1g	.	.	.	.	.	.	.
.	.	.	.	.	.	.	.	4a	.	.	.
.	.	[1B-y	.	.	.	[1b-y	qui	1g	.	.	.
.	.	.	.	4f	.	.	.	.	.	2ee	.
.	.	.	.	4e	.	.	.	.	.	.	.
=18	=18	=18	=18	=18	=18	=18	=18	=18	=18	=18	=18
0r	.	0B-]	.	0d	-ls	1b-]	.	2f	.	2.ff	tol-
.	.	.	.	.	.	.	.	2.d	.	.	.
.	.	.	.	.	.	.	.	.	.	4ee	.
.	.	.	.	.	.	1f	.	.	.	1dd	.
.	.	.	.	.	.	.	.	4e	.	.	.
.	.	.	.	.	.	.	.	4f	.	.	.
.	.	.	.	.	.	.	.	4g	.	.	.
=19	=19	=19	=19	=19	=19	=19	=19	=19	=19	=19	=19
0r	.	0F	-lis,	0r	.	1.f	tol-	2a	.	2cc	.
.	.	.	.	.	.	.	.	2f	.	2.a	.
.	.	.	.	.	.	.	.	2.a	.	.	.
.	.	.	.	.	.	.	.	.	.	4b-y	.
.	.	.	.	.	.	4e	.	.	.	4cc	.
.	.	.	.	.	.	4d	.	4b-y	.	4dd	.
=20	=20	=20	=20	=20	=20	=20	=20	=20	=20	=20	=20
0r	.	0r	.	0r	.	2c	.	2cc	.	2ee	.
.	.	.	.	.	.	1cc	.	1a	.	2cc	.
.	.	.	.	.	.	.	.	.	.	2.ee	.
.	.	.	.	.	.	4b-y	.	4g	.	.	.
.	.	.	.	.	.	4a	.	4f	.	4ff	.
=21	=21	=21	=21	=21	=21	=21	=21	=21	=21	=21	=21
0r	.	1C	[qui	0r	.	0g	-lis,	4e	.	2gg	.
.	.	.	.	.	.	.	.	4c	.	.	.
.	.	.	.	.	.	.	.	1cc	.	1ee	.
.	.	2.C	tol-	.	.	.	.	.	.	.	.
.	.	.	.	.	.	.	.	4b-y	.	4dd	.
.	.	4D	.	.	.	.	.	4a	.	4cc	.
=22	=22	=22	=22	=22	=22	=22	=22	=22	=22	=22	=22
1G	pec-	2E-X	.	0r	.	0r	.	0g	-lis	4b-y	.
.	.	.	.	.	.	.	.	.	.	4g	.
.	.	2.C	.	.	.	.	.	.	.	1gg	.
1c	.	.	.	.	.	.	.	.	.	.	.
.	.	4D	.	.	.	.	.	.	.	.	.
.	.	4E-i	.	.	.	.	.	.	.	4ff	.
.	.	4F	.	.	.	.	.	.	.	4ee	.
=23	=23	=23	=23	=23	=23	=23	=23	=23	=23	=23	=23
1B-y	-ca-	2.G	.	1d	pec-	1r	.	0r	.	0dd	-lis
.	.	4A	.	.	.	.	.	.	.	.	.
2.G	-ta	2.B-y	.	1g	.	[1d	[qui	.	.	.	.
4A	.	4c	.	.	.	.	.	.	.	.	.
=24	=24	=24	=24	=24	=24	=24	=24	=24	=24	=24	=24
4B-y	.	1d	.	1f	-ca-	2d]	.	0r	.	0r	.
4c	.	.	.	.	.	.	.	.	.	.	.
1B-y	mun-	.	.	.	.	1f	tol-	.	.	.	.
.	.	1B-y	-lis,	2.d	-ta	.	.	.	.	.	.
4A	.	.	.	.	.	2g	.	.	.	.	.
4G	.	.	.	4e	.	.	.	.	.	.	.
=25	=25	=25	=25	=25	=25	=25	=25	=25	=25	=25	=25
2.F	.	2r	.	4f	.	1a	.	0r	.	0r	.
.	.	.	.	4g	.	.	.	.	.	.	.
.	.	1D	qui	1f	[mun]-	.	.	.	.	.	.
4G	.	.	.	.	.	.	.	.	.	.	.
2A	.	.	.	.	.	2.f	.	.	.	.	.
2B-y	.	4C	.	4e	.	.	.	.	.	.	.
.	.	4BB-y	.	4d	.	4g	.	.	.	.	.
=26	=26	=26	=26	=26	=26	=26	=26	=26	=26	=26	=26
2A	.	1F	tol-	2.c	.	2a	.	0r	.	0r	.
1c	.	.	.	.	.	2A	.	.	.	.	.
.	.	.	.	4d	.	.	.	.	.	.	.
.	.	2E	.	2e	.	2c	.	.	.	.	.
2B-y	.	2D	.	2f	.	2d	.	.	.	.	.
=27	=27	=27	=27	=27	=27	=27	=27	=27	=27	=27	=27
2.c	.	1C	-lis]	2e	.	1.e	.	1g	pec-	0r	.
.	.	.	.	1g	.	.	.	.	.	.	.
4B-y	.	.	.	.	.	.	.	.	.	.	.
1A	.	1r	.	.	.	.	.	1cc	.	.	.
.	.	.	.	2f#i	.	4d	.	.	.	.	.
.	.	.	.	.	.	4c	.	.	.	.	.
=28	=28	=28	=28	=28	=28	=28	=28	=28	=28	=28	=28
0G	-di:	1r	.	2.g	.	2d	.	1b-y	-ca-	1dd	pec-
.	.	.	.	.	.	2B-y	.	.	.	.	.
.	.	.	.	4f	.	.	.	.	.	.	.
.	.	1C	pec-	1e	.	1c	-lis,	2.g	.	1gg	.
.	.	.	.	.	.	.	.	4a	.	.	.
=29	=29	=29	=29	=29	=29	=29	=29	=29	=29	=29	=29
0r	.	2D	-ca-	0d	-di,	2r	.	4b-y	.	1ff	-ca-
.	.	.	.	.	.	.	.	4cc	.	.	.
.	.	2BB-y	.	.	.	1F	qui	1b-y	-ta	.	.
.	.	1BB-y	-ta	.	.	.	.	.	.	2.dd	.
.	.	.	.	.	.	2B-y	.	4a	.	.	.
.	.	.	.	.	.	.	.	4g	.	4ee	.
=30	=30	=30	=30	=30	=30	=30	=30	=30	=30	=30	=30
0r	.	2.D	mun-	0r	.	2A	tol-	2.f	mun-	4ff	.
.	.	.	.	.	.	.	.	.	.	4gg	.
.	.	.	.	.	.	1a	.	.	.	1ff	-ta
.	.	4E	.	.	.	.	.	4g	.	.	.
.	.	2F	.	.	.	.	.	2a	.	.	.
.	.	2G	.	.	.	4g	.	2b-y	.	4ee	.
.	.	.	.	.	.	4f	.	.	.	4dd	.
=31	=31	=31	=31	=31	=31	=31	=31	=31	=31	=31	=31
0r	.	2.A	.	0r	.	2e	.	2a	.	2.cc	mun-
.	.	.	.	.	.	1a	.	1cc	.	.	.
.	.	4B-y	.	.	.	.	.	.	.	4dd	.
.	.	2c	.	.	.	.	.	.	.	2ee	.
.	.	2d	.	.	.	4g	.	2b-y	.	2ff	.
.	.	.	.	.	.	4f	.	.	.	.	.
=32	=32	=32	=32	=32	=32	=32	=32	=32	=32	=32	=32
1.C	[pec-	1G	-di,	0r	.	1g	-lis]	2.cc	.	2ee	.
.	.	.	.	.	.	.	.	.	.	1gg	.
.	.	.	.	.	.	.	.	4b-y	.	.	.
.	.	2r	.	.	.	1r	.	1a	.	.	.
2D	.	2d	[pec-	.	.	.	.	.	.	2ff#i	.
=33	=33	=33	=33	=33	=33	=33	=33	=33	=33	=33	=33
1E-X	-ca-	1B-y	-ca-	1.G	[pec-	0r	.	0g	-di:	2.gg	.
.	.	.	.	.	.	.	.	.	.	4ff	.
1C	-ta	1c	.	.	.	.	.	.	.	1ee	.
.	.	.	.	2A	.	.	.	.	.	.	.
=34	=34	=34	=34	=34	=34	=34	=34	=34	=34	=34	=34
1.G	mun-	2d	-ta	1B-y	-ca-	1.d	pec-	0r	.	0dd	-di:
.	.	1B-y	mun-	.	.	.	.	.	.	.	.
.	.	.	.	1G	-ta	.	.	.	.	.	.
4F	.	4A	.	.	.	2e	.	.	.	.	.
4E	.	4G	.	.	.	.	.	.	.	.	.
=35	=35	=35	=35	=35	=35	=35	=35	=35	=35	=35	=35
1D	.	1A	.	1.d	mun-	1f	-ca-	0r	.	0r	.
1G	.	1B-y	.	.	.	1d	-ta	.	.	.	.
.	.	.	.	4c	.	.	.	.	.	.	.
.	.	.	.	4B-y	.	.	.	.	.	.	.
=36	=36	=36	=36	=36	=36	=36	=36	=36	=36	=36	=36
2F	.	2c	.	1A	.	1a	mun-	0r	.	0r	.
1D	.	2F	.	.	.	.	.	.	.	.	.
.	.	1B-y	.	1d	.	2f	.	.	.	.	.
4C	.	.	.	.	.	2g	.	.	.	.	.
4BB-y	.	.	.	.	.	.	.	.	.	.	.
=37	=37	=37	=37	=37	=37	=37	=37	=37	=37	=37	=37
2.F	.	0A	-di]:	2c	.	1a	.	1.c	mi-	0r	.
.	.	.	.	1A	.	.	.	.	.	.	.
4E	.	.	.	.	.	.	.	.	.	.	.
2F	.	.	.	.	.	1f	-di,	.	.	.	.
2D	.	.	.	4G	.	.	.	2d	-se-	.	.
.	.	.	.	4F	.	.	.	.	.	.	.
=38	=38	=38	=38	=38	=38	=38	=38	=38	=38	=38	=38
0C	-di:	1r	.	2.c	.	2r	.	1e-X	-re-	1.g	mi-
.	.	.	.	.	.	2g	[pec-	.	.	.	.
.	.	.	.	4B-y	.	.	.	.	.	.	.
.	.	2r	.	2c	.	2e	-ca-	1c	-re	.	.
.	.	2c	mi-	2A	.	2c	.	.	.	2a	-se-
=39	=39	=39	=39	=39	=39	=39	=39	=39	=39	=39	=39
0r	.	2.B-y	-se-	0G	-di]:	2.d	-ta	1.g	no-	1b-y	-re-
.	.	4A	.	.	.	4c	.	.	.	.	.
.	.	2B-y	-re-	.	.	2d	.	.	.	1g	-re
.	.	2c	-re	.	.	2e	.	4f	.	.	.
.	.	.	.	.	.	.	.	4e	.	.	.
=40	=40	=40	=40	=40	=40	=40	=40	=40	=40	=40	=40
1.BB-y	mi-	1B-y	no-	0r	.	2f	mun-	1d	.	1.dd	no-
.	.	.	.	.	.	1d	.	.	.	.	.
.	.	1G	.	.	.	.	.	1g	.	.	.
2C	-se-	.	.	.	.	2e	.	.	.	4cc	.
.	.	.	.	.	.	.	.	.	.	4b-y	.
=41	=41	=41	=41	=41	=41	=41	=41	=41	=41	=41	=41
1D	-re-	1d	-[bis,	1.F	mi-	0f	.	2f	.	1a	.
.	.	.	.	.	.	.	.	1d	.	.	.
1BB-y	-re,	1r	.	.	.	.	.	.	.	1dd	.
.	.	.	.	2G	-se-	.	.	4c	.	.	.
.	.	.	.	.	.	.	.	4B-y	.	.	.
=42	=42	=42	=42	=42	=42	=42	=42	=42	=42	=42	=42
1r	.	1F	mi-	1A	-re-	1c	-di,	2.f	.	2cc	.
.	.	.	.	.	.	.	.	.	.	1a	.
.	.	.	.	.	.	.	.	4e	.	.	.
[1F	mi-	[1A	.	1F	-re,	2r	.	2f	.	.	.
.	.	.	.	.	.	2f	pec-	2d	.	4g	.
.	.	.	.	.	.	.	.	.	.	4f	.
=43	=43	=43	=43	=43	=43	=43	=43	=43	=43	=43	=43
2F]	.	2A]	.	1r	.	0f	-ca-	0c	-bis,	2.cc	.
2G	-se-	2G	-se-	.	.	.	.	.	.	.	.
.	.	.	.	.	.	.	.	.	.	4b-y	.
2A	-re-	1F	-re-	[1c	[mi-	.	.	.	.	2cc	.
2F	-re	.	.	.	.	.	.	.	.	2a	.
=44	=44	=44	=44	=44	=44	=44	=44	=44	=44	=44	=44
1.c	no-	0C	-re	2c]	.	1e	-ta	0r	.	0g	-bis,
.	.	.	.	2d	-se-	.	.	.	.	.	.
.	.	.	.	2e	-re-	1g	.	.	.	.	.
4B-y	.	.	.	2c	-re	.	.	.	.	.	.
4A	.	.	.	.	.	.	.	.	.	.	.
=45	=45	=45	=45	=45	=45	=45	=45	=45	=45	=45	=45
1.G	.	1.E	no-	1.g	no-	2.g	mun-	1.B-y	[mi-	0r	.
.	.	.	.	.	.	4a	.	.	.	.	.
.	.	.	.	.	.	[1b-y	-di]:	.	.	.	.
2A	.	4D	.	4f	.	.	.	2c	-se-	.	.
.	.	4C	.	4e	.	.	.	.	.	.	.
=46	=46	=46	=46	=46	=46	=46	=46	=46	=46	=46	=46
1.B-y	.	1BB-y	-bis,	1.d	.	0b-]	.	1d	-re-	1.f	[mi-
.	.	2r	.	.	.	.	.	1B-y	-re,	.	.
4A	.	2B-y	mi-	2e	.	.	.	.	.	2g	-se-
4G	.	.	.	.	.	.	.	.	.	.	.
=47	=47	=47	=47	=47	=47	=47	=47	=47	=47	=47	=47
1F	-bis],	2c	.	1.f	.	1r	.	1r	.	1a	-re-
.	.	1d	-se-	.	.	.	.	.	.	.	.
1r	.	.	.	.	.	[1a	mi-	[1f	mi-	1f	-re,
.	.	4c	.	4e	.	.	.	.	.	.	.
.	.	4B-y	.	4d	.	.	.	.	.	.	.
=48	=48	=48	=48	=48	=48	=48	=48	=48	=48	=48	=48
1F	mi-	2.A	-re-	1c	-bis,	0a]	.	2f]	.	1r	.
.	.	.	.	.	.	.	.	2g	-se-	.	.
.	.	4G	.	.	.	.	.	.	.	.	.
2.F	-se-	4F	.	1r	.	.	.	2a	-re-	[1cc	mi-
.	.	4E	.	.	.	.	.	.	.	.	.
.	.	[2F	-re	.	.	.	.	2f	-re	.	.
4G	.	.	.	.	.	.	.	.	.	.	.
=49	=49	=49	=49	=49	=49	=49	=49	=49	=49	=49	=49
2A	-re-	2F]	.	1c	mi-	1f	-se-	1.cc	no-	2cc]	.
2F	-re	4E	.	.	.	.	.	.	.	2dd	-se-
.	.	4D	.	.	.	.	.	.	.	.	.
[1c	no-	1C	.	2.c	-se-	1g	.	.	.	2ee	-re-
.	.	.	.	.	.	.	.	4b-y	.	2cc	-re
.	.	.	.	4d	.	.	.	4a	.	.	.
=50	=50	=50	=50	=50	=50	=50	=50	=50	=50	=50	=50
2c]	.	2.C	no-	2e	-re-	1.G	-re-	1.g	.	1.gg	no-
4B-y	.	.	.	2c	-re]	.	.	.	.	.	.
4A	.	4D	.	.	.	.	.	.	.	.	.
1G	-bis,	2E	.	[1g	no-	.	.	.	.	.	.
.	.	2C	.	.	.	2c	-re	2a	.	4ff	.
.	.	.	.	.	.	.	.	.	.	4ee	.
=51	=51	=51	=51	=51	=51	=51	=51	=51	=51	=51	=51
2r	.	2.G	.	2g]	.	2.B-y	no-	1.b-y	.	1.dd	.
1G	[no-	.	.	4f	.	.	.	.	.	.	.
.	.	4A	.	4e	.	4c	.	.	.	.	.
.	.	2.B-y	.	1d	-bis,	2d	.	.	.	.	.
4F	.	.	.	.	.	2G	.	4a	.	2ee	.
4E	.	4c	.	.	.	.	.	4g	.	.	.
=52	=52	=52	=52	=52	=52	=52	=52	=52	=52	=52	=52
1D	.	1d	.	2r	.	1.A	-bis,	1f	-bis,	1.ff	.
.	.	.	.	1d	[no-	.	.	.	.	.	.
2.D	-bis,	1A	-bis],	.	.	.	.	1r	.	.	.
.	.	.	.	4c	.	[2f	no-	.	.	4ee	.
4E	.	.	.	4B-y	.	.	.	.	.	4dd	.
=53	=53	=53	=53	=53	=53	=53	=53	=53	=53	=53	=53
0F	.	2r	.	1A	.	2f]	.	1f	no-	1cc	-bis,
.	.	2.c	mi-	.	.	4e	.	.	.	.	.
.	.	.	.	.	.	4d	.	.	.	.	.
.	.	.	.	2.A	-bis,	1c	.	2.f	-bis,	1r	.
.	.	4B-y	.	.	.	.	.	.	.	.	.
.	.	4A	.	.	.	.	.	.	.	.	.
.	.	4G	.	4B-y	.	.	.	4g	.	.	.
=54	=54	=54	=54	=54	=54	=54	=54	=54	=54	=54	=54
2r	.	2.F	-se-	0c	.	0f	-bis,	2a	.	1cc	no-
1F	no-	.	.	.	.	.	.	2f	.	.	.
.	.	4G	.	.	.	.	.	.	.	.	.
.	.	2A	-re-	.	.	.	.	[1cc	no-	2.cc	-bis,
4E	.	2F	.	.	.	.	.	.	.	.	.
4D	.	.	.	.	.	.	.	.	.	4dd	.
=55	=55	=55	=55	=55	=55	=55	=55	=55	=55	=55	=55
1C	.	2.G	.	2r	.	1e	no-	2cc]	.	2ee	.
.	.	.	.	1c	no-	.	.	4b-y	.	2cc	.
.	.	4F	.	.	.	.	.	4a	.	.	.
2.C	-bis,	4E	.	.	.	2.e	-bis],	1g	-bis,	[1gg	no-
.	.	4D	.	.	.	.	.	.	.	.	.
.	.	[2C	.	4B-y	.	.	.	.	.	.	.
4D	.	.	.	4A	.	4f	.	.	.	.	.
=56	=56	=56	=56	=56	=56	=56	=56	=56	=56	=56	=56
2E	.	2C]	.	1G	.	[0g	.	2r	.	2gg]	.
2C	.	2c	.	.	.	.	.	1g	no-	4ff	.
.	.	.	.	.	.	.	.	.	.	4ee	.
[1G	no-	2B-y	.	2.G	-bis,	.	.	.	.	1dd	-bis,
.	.	[2G	-re	.	.	.	.	4f	.	.	.
.	.	.	.	4A	.	.	.	4e	.	.	.
=57	=57	=57	=57	=57	=57	=57	=57	=57	=57	=57	=57
2G]	.	1G]	.	2B-y	.	1g]	.	1d	.	2r	.
4F	.	.	.	2G	.	.	.	.	.	1dd	no-
4E	.	.	.	.	.	.	.	.	.	.	.
1D	.	[1A	no-	[1d	no-	[1f	no-	2.d	.	.	.
.	.	.	.	.	.	.	.	.	.	4cc	.
.	.	.	.	.	.	.	.	4e	.	4b-y	.
=58	=58	=58	=58	=58	=58	=58	=58	=58	=58	=58	=58
[0Dl	-bis].	2A]	.	2d]	.	2f]	.	[0fl	-bis].	[0al	-bis].
.	.	2F	.	4c	.	2d	-bis,	.	.	.	.
.	.	.	.	4B-y	.	.	.	.	.	.	.
.	.	[1Fl	-bis.	1A	.	1d	[no-	.	.	.	.
=59	=59	=59	=59	=59	=59	=59	=59	=59	=59	=59	=59
00D]	.	00F]	.	00A	-bis].	00d	-bis].	00f]	.	00a]	.
=60||	=60||	=60||	=60||	=60||	=60||	=60||	=60||	=60||	=60||	=60||	=60||
*M2/1	*	*M2/1	*	*M2/1	*	*M2/1	*	*M2/1	*	*M2/1	*
*met(C|)	*	*met(C|)	*	*met(C|)	*	*met(C|)	*	*met(C|)	*	*met(C|)	*
!!section: Agnus Dei II
!!!OMD: Agnus Dei II
!	!	!	!	!	!	!	!	!	!	!LO:TX:a:t=Canon&colon; superius/altus I at the fifth	!
0r	.	0r	.	0r	.	0r	.	0r	.	1a	A-
.	.	.	.	.	.	.	.	.	.	1b-y	.
=61	=61	=61	=61	=61	=61	=61	=61	=61	=61	=61	=61
0r	.	0r	.	0r	.	0r	.	1d	A-	2a	-gnus
.	.	.	.	.	.	.	.	.	.	1a	De-
.	.	.	.	.	.	.	.	1e	.	.	.
.	.	.	.	.	.	.	.	.	.	2g	.
=62	=62	=62	=62	=62	=62	=62	=62	=62	=62	=62	=62
0r	.	0r	.	0r	.	0r	.	2d	-gnus	1a	.
.	.	.	.	.	.	.	.	1d	De-	.	.
.	.	.	.	.	.	.	.	.	.	2b-y	.
.	.	.	.	.	.	.	.	2c	.	[2a	.
=63	=63	=63	=63	=63	=63	=63	=63	=63	=63	=63	=63
0r	.	0r	.	0r	.	0r	.	1d	.	4a]	.
.	.	.	.	.	.	.	.	.	.	4g	.
.	.	.	.	.	.	.	.	.	.	4a	.
.	.	.	.	.	.	.	.	.	.	4b-y	.
.	.	.	.	.	.	.	.	2e	.	2cc	.
.	.	.	.	.	.	.	.	[2d	.	2dd	.
=64	=64	=64	=64	=64	=64	=64	=64	=64	=64	=64	=64
0r	.	0r	.	0r	.	0r	.	4d]	.	1b-y	.
.	.	.	.	.	.	.	.	4c	.	.	.
.	.	.	.	.	.	.	.	4d	.	.	.
.	.	.	.	.	.	.	.	4e	.	.	.
.	.	.	.	.	.	.	.	2f	.	2a	.
.	.	.	.	.	.	.	.	2g	.	[2dd	.
=65	=65	=65	=65	=65	=65	=65	=65	=65	=65	=65	=65
0r	.	0r	.	0r	.	0r	.	1e	.	2dd]	.
.	.	.	.	.	.	.	.	.	.	2cc#i	.
.	.	.	.	.	.	.	.	2d	.	1dd	.
.	.	.	.	.	.	.	.	[2g	.	.	.
=66	=66	=66	=66	=66	=66	=66	=66	=66	=66	=66	=66
0r	.	0r	.	0r	.	0r	.	2g]	.	2ee	-i,
.	.	.	.	.	.	.	.	2f	.	2ff	.
.	.	.	.	.	.	.	.	1g	.	2dd	qui
.	.	.	.	.	.	.	.	.	.	[2gg	tol-
=67	=67	=67	=67	=67	=67	=67	=67	=67	=67	=67	=67
0r	.	0r	.	0r	.	0r	.	2a	-i,	2gg]	.
.	.	.	.	.	.	.	.	2b-y	.	2ff	.
.	.	.	.	.	.	.	.	2g	qui	4gg	.
.	.	.	.	.	.	.	.	.	.	4ff	.
.	.	.	.	.	.	.	.	[2cc	tol-	4ee	.
.	.	.	.	.	.	.	.	.	.	4dd	.
=68	=68	=68	=68	=68	=68	=68	=68	=68	=68	=68	=68
0r	.	0r	.	0r	.	0r	.	2cc]	.	2cc	.
.	.	.	.	.	.	.	.	2b-y	.	2dd	.
.	.	.	.	.	.	.	.	4cc	.	1ee	.
.	.	.	.	.	.	.	.	4b-y	.	.	.
.	.	.	.	.	.	.	.	4a	.	.	.
.	.	.	.	.	.	.	.	4g	.	.	.
=69	=69	=69	=69	=69	=69	=69	=69	=69	=69	=69	=69
0r	.	0r	.	0r	.	0r	.	2f	.	2dd	.
.	.	.	.	.	.	.	.	2g	.	1dd	.
.	.	.	.	.	.	.	.	1a	.	.	.
.	.	.	.	.	.	.	.	.	.	2cc	.
=70	=70	=70	=70	=70	=70	=70	=70	=70	=70	=70	=70
0r	.	0r	.	0r	.	0r	.	2g	.	4dd	.
.	.	.	.	.	.	.	.	.	.	4cc	.
.	.	.	.	.	.	.	.	1g	.	4b-y	.
.	.	.	.	.	.	.	.	.	.	4a	.
.	.	.	.	.	.	.	.	.	.	2g	.
.	.	.	.	.	.	.	.	2f	.	2a	.
=71	=71	=71	=71	=71	=71	=71	=71	=71	=71	=71	=71
0r	.	0r	.	0r	.	0r	.	4g	.	1b-y	.
.	.	.	.	.	.	.	.	4f	.	.	.
.	.	.	.	.	.	.	.	4e	.	.	.
.	.	.	.	.	.	.	.	4d	.	.	.
.	.	.	.	.	.	.	.	2c	.	1a	-lis
.	.	.	.	.	.	.	.	2d	.	.	.
=72	=72	=72	=72	=72	=72	=72	=72	=72	=72	=72	=72
0r	.	0r	.	0r	.	0r	.	1e	.	2r	.
.	.	.	.	.	.	.	.	.	.	2g	pec-
.	.	.	.	.	.	.	.	1d	-lis	2a	-ca-
.	.	.	.	.	.	.	.	.	.	2f	-ta
=73	=73	=73	=73	=73	=73	=73	=73	=73	=73	=73	=73
0r	.	0r	.	0r	.	0r	.	2r	.	2.g	mun-
.	.	.	.	.	.	.	.	2c	pec-	.	.
.	.	.	.	.	.	.	.	.	.	4a	.
.	.	.	.	.	.	.	.	2d	-ca-	2b-y	.
.	.	.	.	.	.	.	.	2B-y	-ta	4a	.
.	.	.	.	.	.	.	.	.	.	4g	.
=74	=74	=74	=74	=74	=74	=74	=74	=74	=74	=74	=74
0r	.	0r	.	0r	.	0r	.	2.c	mun-	1a	.
.	.	.	.	.	.	.	.	4d	.	.	.
.	.	.	.	.	.	.	.	2e	.	1g	-di:
.	.	.	.	.	.	.	.	4d	.	.	.
.	.	.	.	.	.	.	.	4c	.	.	.
=75	=75	=75	=75	=75	=75	=75	=75	=75	=75	=75	=75
0r	.	0r	.	0r	.	0r	.	1d	.	2r	.
.	.	.	.	.	.	.	.	.	.	2dd	mi-
.	.	.	.	.	.	.	.	1c	-di:	2.ee	-se-
.	.	.	.	.	.	.	.	.	.	4ff	.
=76	=76	=76	=76	=76	=76	=76	=76	=76	=76	=76	=76
0r	.	0r	.	0r	.	0r	.	2r	.	4gg	.
.	.	.	.	.	.	.	.	.	.	4ff	.
.	.	.	.	.	.	.	.	2g	mi-	4dd	.
.	.	.	.	.	.	.	.	.	.	4ee	.
.	.	.	.	.	.	.	.	2.a	-se-	2ff	-re-
.	.	.	.	.	.	.	.	.	.	4ee	.
.	.	.	.	.	.	.	.	4b-y	.	4dd	.
=77	=77	=77	=77	=77	=77	=77	=77	=77	=77	=77	=77
0r	.	0r	.	0r	.	0r	.	4cc	.	1ee	.
.	.	.	.	.	.	.	.	4b-y	.	.	.
.	.	.	.	.	.	.	.	4g	.	.	.
.	.	.	.	.	.	.	.	4a	.	.	.
.	.	.	.	.	.	.	.	2b-y	-re-	2dd	-re
.	.	.	.	.	.	.	.	4a	.	[2gg	no-
.	.	.	.	.	.	.	.	4g	.	.	.
=78	=78	=78	=78	=78	=78	=78	=78	=78	=78	=78	=78
0r	.	0r	.	0r	.	0r	.	1a	.	2gg]	.
.	.	.	.	.	.	.	.	.	.	2ff#i	.
.	.	.	.	.	.	.	.	2g	-re	2gg	.
.	.	.	.	.	.	.	.	[2cc	no-	2ee	.
=79	=79	=79	=79	=79	=79	=79	=79	=79	=79	=79	=79
0r	.	0r	.	0r	.	0r	.	2cc]	.	2ff	.
.	.	.	.	.	.	.	.	2b-y	.	4ee	.
.	.	.	.	.	.	.	.	.	.	4dd	.
.	.	.	.	.	.	.	.	2cc	.	2ee	.
.	.	.	.	.	.	.	.	2a	.	2ff	.
=80	=80	=80	=80	=80	=80	=80	=80	=80	=80	=80	=80
0r	.	0r	.	0r	.	0r	.	2b-y	.	2dd	.
.	.	.	.	.	.	.	.	4a	.	1ee	.
.	.	.	.	.	.	.	.	4g	.	.	.
.	.	.	.	.	.	.	.	2a	.	.	.
.	.	.	.	.	.	.	.	2b-y	.	2dd	.
=81	=81	=81	=81	=81	=81	=81	=81	=81	=81	=81	=81
0r	.	0r	.	0r	.	0r	.	2g	.	2ee	.
.	.	.	.	.	.	.	.	1a	.	2cc	.
.	.	.	.	.	.	.	.	.	.	2dd	.
.	.	.	.	.	.	.	.	2g	.	4cc	.
.	.	.	.	.	.	.	.	.	.	4b-y	.
=82	=82	=82	=82	=82	=82	=82	=82	=82	=82	=82	=82
0r	.	0r	.	0r	.	0r	.	2a	.	2cc	.
.	.	.	.	.	.	.	.	2f	.	2dd	.
.	.	.	.	.	.	.	.	2g	.	2b-y	.
.	.	.	.	.	.	.	.	4f	.	[2cc	.
.	.	.	.	.	.	.	.	4e	.	.	.
=83	=83	=83	=83	=83	=83	=83	=83	=83	=83	=83	=83
0r	.	0r	.	0r	.	0r	.	2f	.	2cc]	.
.	.	.	.	.	.	.	.	2g	.	2b-y	.
.	.	.	.	.	.	.	.	2e	.	4cc	.
.	.	.	.	.	.	.	.	.	.	4b-y	.
.	.	.	.	.	.	.	.	[2f	.	4a	.
.	.	.	.	.	.	.	.	.	.	4g	.
=84	=84	=84	=84	=84	=84	=84	=84	=84	=84	=84	=84
0r	.	0r	.	0r	.	0r	.	2f]	.	4a	.
.	.	.	.	.	.	.	.	.	.	4b-y	.
.	.	.	.	.	.	.	.	2e	.	1cc	.
.	.	.	.	.	.	.	.	4f	.	.	.
.	.	.	.	.	.	.	.	4e	.	.	.
.	.	.	.	.	.	.	.	4d	.	4b-y	.
.	.	.	.	.	.	.	.	4c	.	4a	.
=85	=85	=85	=85	=85	=85	=85	=85	=85	=85	=85	=85
0r	.	0r	.	0r	.	0r	.	4d	.	2b-y	.
.	.	.	.	.	.	.	.	4e	.	.	.
.	.	.	.	.	.	.	.	1f	.	2a	-bis,
.	.	.	.	.	.	.	.	.	.	2r	.
.	.	.	.	.	.	.	.	4e	.	2b-y	[mi-
.	.	.	.	.	.	.	.	4d	.	.	.
=86	=86	=86	=86	=86	=86	=86	=86	=86	=86	=86	=86
0r	.	0r	.	0r	.	0r	.	2e	.	2g	-se-
.	.	.	.	.	.	.	.	2d	-bis,	2a	.
.	.	.	.	.	.	.	.	2r	.	2b-y	-re-
.	.	.	.	.	.	.	.	2e	[mi-	4a	.
.	.	.	.	.	.	.	.	.	.	4g	.
=87	=87	=87	=87	=87	=87	=87	=87	=87	=87	=87	=87
0r	.	0r	.	0r	.	0r	.	2c	-se-	1a	.
.	.	.	.	.	.	.	.	2d	.	.	.
.	.	.	.	.	.	.	.	2e	-re-	2g	-re
.	.	.	.	.	.	.	.	4d	.	[2cc	no-
.	.	.	.	.	.	.	.	4c	.	.	.
=88	=88	=88	=88	=88	=88	=88	=88	=88	=88	=88	=88
0r	.	0r	.	0r	.	0r	.	1d	.	2cc]	.
.	.	.	.	.	.	.	.	.	.	2bnXi	.
.	.	.	.	.	.	.	.	2c	-re	[1cc	-bis],
.	.	.	.	.	.	.	.	[2f	no-	.	.
=89	=89	=89	=89	=89	=89	=89	=89	=89	=89	=89	=89
0r	.	0r	.	0r	.	0r	.	2f]	.	1cc]	.
.	.	.	.	.	.	.	.	2e	.	.	.
.	.	.	.	.	.	.	.	[1f	-bis],	2r	.
.	.	.	.	.	.	.	.	.	.	[2cc	mi-
=90	=90	=90	=90	=90	=90	=90	=90	=90	=90	=90	=90
0r	.	0r	.	0r	.	0r	.	1f]	.	4cc]	.
.	.	.	.	.	.	.	.	.	.	4b-y	.
.	.	.	.	.	.	.	.	.	.	4a	.
.	.	.	.	.	.	.	.	.	.	4g	.
.	.	.	.	.	.	.	.	2r	.	2.a	-se-
.	.	.	.	.	.	.	.	[2f	mi-	.	.
.	.	.	.	.	.	.	.	.	.	4b-y	.
=91	=91	=91	=91	=91	=91	=91	=91	=91	=91	=91	=91
0r	.	0r	.	0r	.	0r	.	4f]	.	2cc	-re-
.	.	.	.	.	.	.	.	4e	.	.	.
.	.	.	.	.	.	.	.	4d	.	2dd	.
.	.	.	.	.	.	.	.	4c	.	.	.
.	.	.	.	.	.	.	.	2.d	-se-	1b-y	.
.	.	.	.	.	.	.	.	4e	.	.	.
=92	=92	=92	=92	=92	=92	=92	=92	=92	=92	=92	=92
0r	.	0r	.	0r	.	0r	.	2f	-re-	2a	-re
.	.	.	.	.	.	.	.	2g	.	1dd	no-
.	.	.	.	.	.	.	.	1e	.	.	.
.	.	.	.	.	.	.	.	.	.	2cc#i	.
=93	=93	=93	=93	=93	=93	=93	=93	=93	=93	=93	=93
0r	.	0r	.	0r	.	0r	.	2d	-re	2dd	.
.	.	.	.	.	.	.	.	1g	no-	4cc	.
.	.	.	.	.	.	.	.	.	.	4b-y	.
.	.	.	.	.	.	.	.	.	.	1a	.
.	.	.	.	.	.	.	.	2f#i	.	.	.
=94	=94	=94	=94	=94	=94	=94	=94	=94	=94	=94	=94
00r	.	00r	.	00r	.	00r	.	00g	-bis.	00g	-bis.
=95||	=95||	=95||	=95||	=95||	=95||	=95||	=95||	=95||	=95||	=95||	=95||
*M3/1	*	*M3/1	*	*M3/1	*	*M3/1	*	*M3/1	*	*M3/1	*
*met(C3)	*	*met(C3)	*	*met(C3)	*	*met(C3)	*	*met(C3)	*	*met(C3)	*
!!section: Agnus Dei III
!!!OMD: Agnus Dei III
!LO:TX:a:t=Canon&colon; bassus/tenor I at the fifth	!	!	!	!	!	!	!	!LO:TX:a:t=Canon&colon; altus I/superius at the fifth	!	!	!
0.r	.	0.c	A-	0.r	.	1r	.	0c	A-	0.r	.
.	.	.	.	.	.	1r	.	.	.	.	.
.	.	.	.	.	.	[1c	A-	1e	-gnus	.	.
=96	=96	=96	=96	=96	=96	=96	=96	=96	=96	=96	=96
0.r	.	1A	-gnus	0.r	.	1c]	.	1f	De-	0.r	.
.	.	1B-y	De-	.	.	1d	.	1g	-i,	.	.
.	.	1c	.	.	.	1e	-gnus	1g	[qui	.	.
=97	=97	=97	=97	=97	=97	=97	=97	=97	=97	=97	=97
0.r	.	0.G	-i,	0.r	.	1.d	De-	1.b-y	tol-	0g	A-
.	.	.	.	.	.	2c	.	2a	.	.	.
.	.	.	.	.	.	1B-y	.	2g	.	1b-y	-gnus
.	.	.	.	.	.	.	.	2f	.	.	.
=98	=98	=98	=98	=98	=98	=98	=98	=98	=98	=98	=98
0.r	.	1r	.	0.r	.	1A	-i,	1a	.	1cc	De-
.	.	1r	.	.	.	0B-y	[qui	0g	.	1dd	-i,
.	.	1G	[qui	.	.	.	.	.	.	1dd	[qui
=99	=99	=99	=99	=99	=99	=99	=99	=99	=99	=99	=99
0.r	.	0.D	tol-	0.r	.	0A	tol-	2f	.	1.ff	tol-
.	.	.	.	.	.	.	.	1d	.	.	.
.	.	.	.	.	.	.	.	2e	.	2ee	.
.	.	.	.	.	.	1A	.	1f	-lis],	2dd	.
.	.	.	.	.	.	.	.	.	.	2cc	.
=100	=100	=100	=100	=100	=100	=100	=100	=100	=100	=100	=100
0.r	.	0.G	-lis],	0.r	.	1.B-y	.	1.g	qui	1ee	.
.	.	.	.	.	.	.	.	.	.	0dd	.
.	.	.	.	.	.	2c	.	2a	.	.	.
.	.	.	.	.	.	2d	.	2b-y	.	.	.
.	.	.	.	.	.	2e	.	2g	.	.	.
=101	=101	=101	=101	=101	=101	=101	=101	=101	=101	=101	=101
0.r	.	1r	.	0.r	.	1f	.	2a	.	2cc	.
.	.	.	.	.	.	.	.	1f	tol-	1a	.
.	.	1r	.	.	.	1d	.	.	.	.	.
.	.	.	.	.	.	.	.	2g	.	2b-y	.
.	.	1A	qui	.	.	1a	.	1e	.	1cc	-lis],
=102	=102	=102	=102	=102	=102	=102	=102	=102	=102	=102	=102
0.r	.	0B-y	tol-	0.r	.	0.f	-lis],	0.d	.	1.dd	qui
.	.	.	.	.	.	.	.	.	.	2ee	.
.	.	1B-y	-lis,	.	.	.	.	.	.	2ff	.
.	.	.	.	.	.	.	.	.	.	2dd	.
=103	=103	=103	=103	=103	=103	=103	=103	=103	=103	=103	=103
0.r	.	2c	.	0.r	.	1r	.	1c	.	2ee	.
.	.	1A	.	.	.	.	.	.	.	1cc	tol-
.	.	.	.	.	.	1r	.	1f	.	.	.
.	.	2B-y	.	.	.	.	.	.	.	2dd	.
.	.	1G	.	.	.	1e	qui	1g	.	1b-y	.
=104	=104	=104	=104	=104	=104	=104	=104	=104	=104	=104	=104
0.r	.	1d	.	0.r	.	0f	tol-	2f	.	0.a	.
.	.	.	.	.	.	.	.	2e	.	.	.
.	.	1r	.	.	.	.	.	2d	.	.	.
.	.	.	.	.	.	.	.	2c	.	.	.
.	.	1r	.	.	.	1f	-lis	1d	.	.	.
=105	=105	=105	=105	=105	=105	=105	=105	=105	=105	=105	=105
0.r	.	1c	[qui-	0.r	.	2g	[pec-	1e	-lis	1g	.
.	.	.	.	.	.	1e	-ca-	.	.	.	.
.	.	1A	.	.	.	.	.	1c	.	1cc	.
.	.	.	.	.	.	2f	.	.	.	.	.
.	.	1B-y	-tol-	.	.	1d	.	1r	.	1dd	.
=106	=106	=106	=106	=106	=106	=106	=106	=106	=106	=106	=106
0.r	.	1.A	.	0.r	.	1.e	.	0.c	pec-	2cc	.
.	.	.	.	.	.	.	.	.	.	2b-y	.
.	.	.	.	.	.	.	.	.	.	2a	.
.	.	2B-y	.	.	.	2d	.	.	.	2g	.
.	.	1c	.	.	.	2e	.	.	.	1a	.
.	.	.	.	.	.	2f	.	.	.	.	.
=107	=107	=107	=107	=107	=107	=107	=107	=107	=107	=107	=107
0.r	.	1B-y	.	0.r	.	1.g	.	1d	-ca-	1b-y	-lis
.	.	1c	.	.	.	.	.	1e	.	1g	.
.	.	.	.	.	.	2e	.	.	.	.	.
.	.	1A	.	.	.	1f	.	1c	.	1r	.
=108	=108	=108	=108	=108	=108	=108	=108	=108	=108	=108	=108
0C	A-	0.G	-lis,	0.r	.	0e	.	0g	-ta	0.g	pec-
1E	-gnus	.	.	.	.	[1c	.	1g	mun-	.	.
=109	=109	=109	=109	=109	=109	=109	=109	=109	=109	=109	=109
1F	De-	0.r	.	0.r	.	1c]	.	1f	.	1a	-ca-
1G	-i	.	.	.	.	0g	.	0e-X	.	1b-y	-ta
1G	qui	.	.	.	.	.	.	.	.	1g	.
=110	=110	=110	=110	=110	=110	=110	=110	=110	=110	=110	=110
1.B-y	tol-	0.r	.	0G	A-	0.g	-ta],	0.d	-di,	0dd	mun-
2A	.	.	.	.	.	.	.	.	.	.	.
2G	.	.	.	1B-y	-gnus	.	.	.	.	1dd	.
2F	.	.	.	.	.	.	.	.	.	.	.
=111	=111	=111	=111	=111	=111	=111	=111	=111	=111	=111	=111
1A	.	1r	.	1c	De-	0.r	.	0.r	.	1cc	.
0G	.	1r	.	1d	-i,	.	.	.	.	0b-y	.
.	.	1B-y	qui	1d	qui	.	.	.	.	.	.
=112	=112	=112	=112	=112	=112	=112	=112	=112	=112	=112	=112
2F	.	2c	tol-	1.f	tol-	0.r	.	0.r	.	0.a	-di,
1D	.	1d	.	.	.	.	.	.	.	.	.
2E	.	2c	.	2e	.	.	.	.	.	.	.
1F	.	1A	.	2d	.	.	.	.	.	.	.
.	.	.	.	2c	.	.	.	.	.	.	.
=113	=113	=113	=113	=113	=113	=113	=113	=113	=113	=113	=113
1.G	.	0.B-y	.	1e	.	0.g	pec-	0.r	.	0.r	.
.	.	.	.	0d	.	.	.	.	.	.	.
2A	.	.	.	.	.	.	.	.	.	.	.
2B-y	.	.	.	.	.	.	.	.	.	.	.
2G	.	.	.	.	.	.	.	.	.	.	.
=114	=114	=114	=114	=114	=114	=114	=114	=114	=114	=114	=114
2A	.	1F	-lis,	2c	.	1f	-ca-	0.r	.	0.r	.
1F	.	.	.	1A	.	.	.	.	.	.	.
.	.	1r	.	.	.	1d	-ta	.	.	.	.
2G	.	.	.	2B-y	.	.	.	.	.	.	.
1E	.	1G	qui	1c	.	1e	.	.	.	.	.
=115	=115	=115	=115	=115	=115	=115	=115	=115	=115	=115	=115
0D	.	0A	tol-	1.d	.	1.f	mun-	0.r	.	0.r	.
.	.	.	.	2e	.	2g	.	.	.	.	.
1D	.	1F	.	2f	.	2a	.	.	.	.	.
.	.	.	.	2d	.	2f	.	.	.	.	.
=116	=116	=116	=116	=116	=116	=116	=116	=116	=116	=116	=116
1C	.	1c	.	2e	.	1g	.	0.r	.	0.r	.
.	.	.	.	1c	.	.	.	.	.	.	.
1F	.	1A	.	.	.	2a	.	.	.	.	.
.	.	.	.	2d	.	1f	.	.	.	.	.
1G	.	1B-y	.	1B-y	.	.	.	.	.	.	.
.	.	.	.	.	.	2e	.	.	.	.	.
=117	=117	=117	=117	=117	=117	=117	=117	=117	=117	=117	=117
2F	.	1c	.	0.A	.	0.f	-di,	0.r	.	0.r	.
2E	.	.	.	.	.	.	.	.	.	.	.
2D	.	0F	.	.	.	.	.	.	.	.	.
2C	.	.	.	.	.	.	.	.	.	.	.
1D	.	.	.	.	.	.	.	.	.	.	.
=118	=118	=118	=118	=118	=118	=118	=118	=118	=118	=118	=118
1E	-lis,	1.G	.	1G	.	0.r	.	1r	.	0.r	.
1C	.	.	.	1c	.	.	.	1c	[pec-	.	.
.	.	2A	.	.	.	.	.	.	.	.	.
1r	.	1B-y	.	1d	.	.	.	1f	-ca-	.	.
=119	=119	=119	=119	=119	=119	=119	=119	=119	=119	=119	=119
0.C	qui	1G	.	2c	.	1r	.	1g	-ta	0.r	.
.	.	.	.	2B-y	.	.	.	.	.	.	.
.	.	0c	.	2A	.	1r	.	0e	mun-	.	.
.	.	.	.	2G	.	.	.	.	.	.	.
.	.	.	.	1A	.	1c	[pec-	.	.	.	.
=120	=120	=120	=120	=120	=120	=120	=120	=120	=120	=120	=120
1D	.	1F	-lis]	1B-y	-lis	1f	-ca-	1d	-di]:	1r	.
1E	.	1r	.	1G	.	1g	-ta	1r	.	1g	[pec-
1C	.	1G	pec-	1r	.	1e	mun-	1r	.	1cc	-ca-
=121	=121	=121	=121	=121	=121	=121	=121	=121	=121	=121	=121
0G	.	1.B-y	-ca-	0.G	pec-	0d	-di,	0d	do-	1dd	-ta
.	.	.	.	.	.	.	.	.	.	0b-y	mun-
.	.	2A	.	.	.	.	.	.	.	.	.
1G	tol-	2B-y	.	.	.	1r	.	1e	-na	.	.
.	.	2c	.	.	.	.	.	.	.	.	.
=122	=122	=122	=122	=122	=122	=122	=122	=122	=122	=122	=122
1F	.	1d	-ta	1A	-ca-	1r	.	1f	no-	1a	-di]:
0E	.	0G	mun-	1B-y	.	1r	.	0g	.	1r	.
.	.	.	.	1G	.	1e	pec-	.	.	1r	.
=123	=123	=123	=123	=123	=123	=123	=123	=123	=123	=123	=123
0.D	-lis	0A	-di,	0d	.	1f	-ca-	0f	.	0a	do-
.	.	.	.	.	.	2d	.	.	.	.	.
.	.	.	.	.	.	2e	.	.	.	.	.
.	.	1r	.	1d	-ta	2f	.	1d	.	1b-y	-na
.	.	.	.	.	.	2g	.	.	.	.	.
=124	=124	=124	=124	=124	=124	=124	=124	=124	=124	=124	=124
0.r	.	0.r	.	1c	mun-	1a	-ta	1e	.	1cc	no-
.	.	.	.	0B-y	.	1.d	mun-	1f	.	0dd	.
.	.	.	.	.	.	.	.	1g	.	.	.
.	.	.	.	.	.	2e	.	.	.	.	.
=125	=125	=125	=125	=125	=125	=125	=125	=125	=125	=125	=125
0.r	.	1.F	[pec-	0.A	-di,	1.f	.	1.a	.	0cc	.
.	.	2G	-ca-	.	.	2e	.	2g	.	.	.
.	.	1A	-ta	.	.	1c	.	2.f	.	1a	.
.	.	.	.	.	.	.	.	4e	.	.	.
=126	=126	=126	=126	=126	=126	=126	=126	=126	=126	=126	=126
0.r	.	1G	mun-	0.r	.	1d	.	1g	-bis	1b-y	.
.	.	1A	.	.	.	1c	.	2.f	pa-	1cc	.
.	.	.	.	.	.	.	.	4e	.	.	.
.	.	1B-y	.	.	.	[1g	.	1d	.	1dd	.
=127	=127	=127	=127	=127	=127	=127	=127	=127	=127	=127	=127
0.r	.	1.c	.	0.r	.	2g]	.	0.c	-cem,	1.ee	.
.	.	.	.	.	.	2f	.	.	.	.	.
.	.	.	.	.	.	1g	.	.	.	.	.
.	.	2B-y	.	.	.	.	.	.	.	2dd	.
.	.	1A	.	.	.	1a	.	.	.	2.cc	.
.	.	.	.	.	.	.	.	.	.	4b-y	.
=128	=128	=128	=128	=128	=128	=128	=128	=128	=128	=128	=128
0.r	.	1G	-di,	0.r	.	1b-y	.	1r	.	1dd	-bis
.	.	1C	.	.	.	2a	.	1c	[do-	2.cc	pa-
.	.	.	.	.	.	1g	.	.	.	.	.
.	.	.	.	.	.	.	.	.	.	4b-y	.
.	.	1r	.	.	.	.	.	1d	-na	1a	.
.	.	.	.	.	.	2f#i	.	.	.	.	.
=129	=129	=129	=129	=129	=129	=129	=129	=129	=129	=129	=129
0.r	.	1.C	pec-	0.r	.	1g	.	1e	no-	0.g	-cem,
.	.	.	.	.	.	1.e	.	1c	-bis,	.	.
.	.	2D	-ca-	.	.	.	.	.	.	.	.
.	.	1E	-ta	.	.	.	.	1r	.	.	.
.	.	.	.	.	.	2c	.	.	.	.	.
=130	=130	=130	=130	=130	=130	=130	=130	=130	=130	=130	=130
0.r	.	1F	mun-	0.r	.	1c	.	0.c	do-	1r	.
.	.	1C	.	.	.	1e	.	.	.	1g	[do-
.	.	1F	.	.	.	1f	.	.	.	1a	-na
=131	=131	=131	=131	=131	=131	=131	=131	=131	=131	=131	=131
1r	.	1G	.	0.r	.	2e	.	1.g	-na	1b-y	no-
.	.	.	.	.	.	1d	.	.	.	.	.
1C	pec-	1E-X	.	.	.	.	.	.	.	1g	-bis,
.	.	.	.	.	.	2c	.	2e-i	.	.	.
1F	-ca-	1D	.	.	.	1d	-di,	1f	.	1r	.
=132	=132	=132	=132	=132	=132	=132	=132	=132	=132	=132	=132
1G	-ta	0B-y	.	0.r	.	1r	.	2d	no-	0.g	do-
.	.	.	.	.	.	.	.	1e	.	.	.
0E	mun-	.	.	.	.	1r	.	.	.	.	.
.	.	.	.	.	.	.	.	1d	.	.	.
.	.	1G	.	.	.	1e	do-	.	.	.	.
.	.	.	.	.	.	.	.	2c#i	.	.	.
=133	=133	=133	=133	=133	=133	=133	=133	=133	=133	=133	=133
1D	-di:	2A	.	1r	.	1f	-na	1d	.	1.dd	-na
.	.	1B-y	.	.	.	.	.	.	.	.	.
1r	.	.	.	1G	[pec-	1g	.	0e	.	.	.
.	.	2G	.	.	.	.	.	.	.	2b-y	.
1r	.	1A	.	1c	-ca-	1e	.	.	.	1cc	.
=134	=134	=134	=134	=134	=134	=134	=134	=134	=134	=134	=134
0D	do-	0F	-di]:	1d	-ta	0f	no-	1d	.	2a	no-
.	.	.	.	.	.	.	.	.	.	1b-y	.
.	.	.	.	0B-y	mun-	.	.	1f	.	.	.
.	.	.	.	.	.	.	.	.	.	1a	.
1E	-na	1r	.	.	.	1e	.	1g	.	.	.
.	.	.	.	.	.	.	.	.	.	2g	.
=135	=135	=135	=135	=135	=135	=135	=135	=135	=135	=135	=135
1F	no-	0c	do-	1A	-di]:	1c	.	0f	.	1a	.
0G	.	.	.	1r	.	0g	.	.	.	0b-y	.
.	.	1B-y	-na	1r	.	.	.	1e	.	.	.
=136	=136	=136	=136	=136	=136	=136	=136	=136	=136	=136	=136
0F	.	2c	no-	0A	do-	0a	-bis],	0f	-bis],	1a	-bis]
.	.	2B-y	.	.	.	.	.	.	.	.	.
.	.	2A	.	.	.	.	.	.	.	1cc	pa-
.	.	2G	.	.	.	.	.	.	.	.	.
1D	.	1F	-bis	1B-y	-na	1r	.	1r	.	1dd	.
=137	=137	=137	=137	=137	=137	=137	=137	=137	=137	=137	=137
1E	.	1G	pa-	1c	no-	1g	do-	1r	.	0cc	.
1F	.	1A	.	0d	.	1f	.	1f	do-	.	.
1G	-bis	1B-y	.	.	.	1d	-na	1B-y	-na	1b-y	.
=138	=138	=138	=138	=138	=138	=138	=138	=138	=138	=138	=138
1.A	pa-	0.F	-cem,	0c	.	0a	no-	1.f	no-	0cc	-cem,
2G	.	.	.	.	.	.	.	2e	.	.	.
2.F	.	.	.	1A	.	1a	-bis	2d	.	1r	.
.	.	.	.	.	.	.	.	2c	.	.	.
4E	.	.	.	.	.	.	.	.	.	.	.
=139	=139	=139	=139	=139	=139	=139	=139	=139	=139	=139	=139
1G	.	1r	.	1B-y	.	1g	pa-	2e	.	1r	.
.	.	.	.	.	.	.	.	1d	.	.	.
2.F	.	1r	.	1c	.	1a	.	.	.	1cc	[do-
.	.	.	.	.	.	.	.	1c	.	.	.
4E	.	.	.	.	.	.	.	.	.	.	.
1D	.	1F	[do-	1d	.	1b-y	.	.	.	1f	-na
.	.	.	.	.	.	.	.	2B-y	.	.	.
=140	=140	=140	=140	=140	=140	=140	=140	=140	=140	=140	=140
0.C	-cem,	1G	-na	1.e	.	0g	-cem,	1c	.	1.cc	no-
.	.	1C	.	.	.	.	.	1g	.	.	.
.	.	.	.	2d	.	.	.	.	.	2b-y	.
.	.	1E	no-	2.c	.	1r	.	1e	.	2a	.
.	.	.	.	.	.	.	.	.	.	2g	.
.	.	.	.	4B-y	.	.	.	.	.	.	.
=141	=141	=141	=141	=141	=141	=141	=141	=141	=141	=141	=141
1r	.	1D	-bis	1d	-bis	0.r	.	1f	.	2b-y	-bis
.	.	.	.	.	.	.	.	.	.	1a	pa-
1C	[do-	1r	.	2.c	pa-	.	.	1e	.	.	.
.	.	.	.	.	.	.	.	.	.	1g	.
.	.	.	.	4B-y	.	.	.	.	.	.	.
1D	-na	1D	pa-	1A	.	.	.	1d	-bis	.	.
.	.	.	.	.	.	.	.	.	.	2f#i	.
=142	=142	=142	=142	=142	=142	=142	=142	=142	=142	=142	=142
1E-X	no-	1.G	.	[0.Gl	-cem.	1r	.	1B-y	pa-	[0.gl	-cem].
1C	-bis	.	.	.	.	1e	[do-	1c	.	.	.
.	.	2A	.	.	.	.	.	.	.	.	.
1r	.	1B-y	.	.	.	1d	-na	1B-y	.	.	.
=143	=143	=143	=143	=143	=143	=143	=143	=143	=143	=143	=143
0.C	pa-	1c	.	0.G_	.	1c	no-	1g	.	0.g_	.
.	.	1G	.	.	.	1.g	-bis	1e	.	.	.
.	.	1c	.	.	.	.	.	1g	.	.	.
.	.	.	.	.	.	2a	.	.	.	.	.
=144	=144	=144	=144	=144	=144	=144	=144	=144	=144	=144	=144
[0.Gl	-cem].	[0.B-yl	-cem].	0.G_	.	1.b-y	pa-	[0.gl	-cem.	0.g_	.
.	.	.	.	.	.	1g	.	.	.	.	.
.	.	.	.	.	.	4f	.	.	.	.	.
.	.	.	.	.	.	4e	.	.	.	.	.
=145	=145	=145	=145	=145	=145	=145	=145	=145	=145	=145	=145
00G]	.	00B-]	.	00G]	.	00dl	-cem].	00g]	.	00g]	.
==	==	==	==	==	==	==	==	==	==	==	==
*-	*-	*-	*-	*-	*-	*-	*-	*-	*-	*-	*-
!!!system-decoration: s1,s2,s3,s4,s5,s6
!!!YEM: This work is licensed under a Creative Commons Attribution-NonCommercial 4.0 International License
!!!RDF**kern: i = editorial accidental
!!!RDF**kern: l = terminal long
!!!ENC: Vincent Besson, Marco Gurrieri, and Richard Freedman
!!!END: 2025/3/14
!!!EED: Benjamin Ory
!!!EEV: 2025/11/21
!!!YEC: Copyright 2025 Citations: The Renaissance Imitation Mass Project, All Rights Reserved
!!!ONB: Translated from MusicXML on 2025/3/14
!!!verovio: header encoded
!!!header-left: Edited by @{ENC} (2025)\n Citations: The Renaissance Imitation Mass Project \n
!!!header-right:
!!!header-center: